fs/document_css_24_filled.svg

<svg viewBox="0 0 24 24" fill="none" xmlns="http://www.w3.org/2000/svg" height="1em" width="1em">
  <path d="M12 8V2H6C4.89543 2 4 2.89543 4 4V14.0354C4.98339 14.1761 5.83491 14.7255 6.37691 15.5061C6.8824 14.6072 7.84529 14 8.95 14H9.05C10.0707 14 10.9704 14.5184 11.5 15.3063C12.0296 14.5184 12.9293 14 13.95 14H14.05C15.6792 14 17 15.3208 17 16.95V17C17 17.4502 16.83 17.8606 16.5508 18.1707C16.8378 18.609 17 19.1296 17 19.677V20.05C17 20.7975 16.722 21.4801 16.2636 22H18C19.1046 22 20 21.1046 20 20V10H14C12.8954 10 12 9.10457 12 8ZM14.05 22C15.127 22 16 21.127 16 20.05V19.677C16 19.3178 15.8902 18.9767 15.6968 18.6925C15.5775 18.5173 15.4266 18.3637 15.25 18.2408C15.1424 18.1659 15.0252 18.1023 14.8999 18.0522L14.3343 17.826L13.6214 17.3982C13.5461 17.353 13.5 17.2716 13.5 17.1838V16.95C13.5 16.7015 13.7015 16.5 13.95 16.5H14.05C14.2481 16.5 14.4163 16.628 14.4764 16.8057C14.4917 16.851 14.5 16.8995 14.5 16.95V17C14.5 17.3389 14.7248 17.6254 15.0335 17.7183C15.102 17.7389 15.1747 17.75 15.25 17.75C15.4982 17.75 15.7183 17.6294 15.8548 17.4437C15.9461 17.3194 16 17.166 16 17V16.95C16 15.873 15.127 15 14.05 15H13.95C12.873 15 12 15.873 12 16.95V17.323C12 17.6822 12.1098 18.0233 12.3032 18.3075C12.4225 18.4827 12.5734 18.6363 12.75 18.7592C12.8576 18.8341 12.9748 18.8977 13.1001 18.9478L13.6657 19.174L14.3786 19.6018C14.4539 19.647 14.5 19.7284 14.5 19.8162V20.05C14.5 20.2985 14.2985 20.5 14.05 20.5H13.95C13.7519 20.5 13.5837 20.372 13.5236 20.1943C13.5083 20.149 13.5 20.1005 13.5 20.05V20C13.5 19.6611 13.2752 19.3746 12.9665 19.2817C12.898 19.2611 12.8253 19.25 12.75 19.25C12.5018 19.25 12.2817 19.3706 12.1452 19.5563C12.0539 19.6806 12 19.834 12 20V20.05C12 21.127 12.873 22 13.95 22H14.05ZM11 20.05C11 20.3949 10.9105 20.7189 10.7533 21C10.4199 21.5966 9.78205 22 9.05 22H8.95C8.21795 22 7.58012 21.5966 7.24666 21C7.08955 20.7189 7 20.3949 7 20.05V20C7 19.834 7.05393 19.6806 7.14523 19.5563C7.28174 19.3706 7.50179 19.25 7.75 19.25C7.82527 19.25 7.89795 19.2611 7.9665 19.2817C8.27516 19.3746 8.5 19.6611 8.5 20V20.05C8.5 20.1005 8.5083 20.149 8.52362 20.1943C8.58374 20.372 8.75193 20.5 8.95 20.5H9.05C9.29853 20.5 9.5 20.2985 9.5 20.05V19.8162C9.5 19.7284 9.45393 19.647 9.37862 19.6018L8.66566 19.174L8.10007 18.9478C7.97478 18.8977 7.85763 18.8341 7.75 18.7592C7.57341 18.6363 7.42245 18.4827 7.30324 18.3075C7.10981 18.0233 7 17.6822 7 17.323V16.95C7 15.873 7.87304 15 8.95 15H9.05C10.127 15 11 15.873 11 16.95V17C11 17.166 10.9461 17.3194 10.8548 17.4437C10.7183 17.6294 10.4982 17.75 10.25 17.75C10.1747 17.75 10.102 17.7389 10.0335 17.7183C9.72484 17.6254 9.5 17.3389 9.5 17V16.95C9.5 16.8995 9.4917 16.851 9.47638 16.8057C9.41626 16.628 9.24807 16.5 9.05 16.5H8.95C8.70147 16.5 8.5 16.7015 8.5 16.95V17.1838C8.5 17.2716 8.54607 17.353 8.62138 17.3982L9.33434 17.826L9.89993 18.0522C10.0252 18.1023 10.1424 18.1659 10.25 18.2408C10.4266 18.3637 10.5775 18.5173 10.6968 18.6925C10.8902 18.9767 11 19.3178 11 19.677V20.05ZM5.95011 21.9994C5.96691 21.9829 5.98354 21.9663 6 21.9495V22C5.98332 22 5.96669 21.9998 5.95011 21.9994ZM4.8263 21.6196C5.53127 21.1775 6 20.3935 6 19.5C6 19.3635 5.96355 19.2356 5.89987 19.1254C5.77024 18.901 5.52775 18.75 5.25 18.75C4.97225 18.75 4.72976 18.901 4.60013 19.1254C4.53645 19.2356 4.5 19.3635 4.5 19.5C4.5 19.8575 4.31236 20.1713 4.03018 20.348C3.87648 20.4443 3.69474 20.5 3.5 20.5C2.94772 20.5 2.5 20.0523 2.5 19.5V17.5C2.5 16.9477 2.94772 16.5 3.5 16.5C3.68214 16.5 3.85291 16.5487 4 16.6338C4.2989 16.8067 4.5 17.1299 4.5 17.5C4.5 17.6365 4.53644 17.7644 4.60013 17.8746C4.72976 18.099 4.97225 18.25 5.25 18.25C5.52775 18.25 5.77024 18.099 5.89987 17.8746C5.96355 17.7644 6 17.6365 6 17.5C6 16.2905 5.14112 15.2816 4 15.05C3.83844 15.0172 3.67123 15 3.5 15C2.11929 15 1 16.1193 1 17.5V19.5C1 20.8807 2.11929 22 3.5 22C3.98722 22 4.44188 21.8606 4.8263 21.6196ZM13.5 8V2.5L19.5 8.5H14C13.7239 8.5 13.5 8.27614 13.5 8Z" fill="#212121"/>
</svg>

<svg viewBox="0 0 24 24" fill="none" xmlns="http://www.w3.org/2000/svg" height="1em" width="1em">
  <path d="M12 8V2H6a2 2 0 0 0-2 2v10.035a3.5 3.5 0 0 1 2.377 1.471A2.95 2.95 0 0 1 8.95 14h.1c1.02 0 1.92.518 2.45 1.306A2.947 2.947 0 0 1 13.95 14h.1A2.95 2.95 0 0 1 17 16.95V17c0 .45-.17.86-.45 1.17.288.439.45.96.45 1.507v.373c0 .747-.278 1.43-.736 1.95H18a2 2 0 0 0 2-2V10h-6a2 2 0 0 1-2-2Zm2.05 14A1.95 1.95 0 0 0 16 20.05v-.373a1.748 1.748 0 0 0-1.1-1.625l-.566-.226-.713-.428a.25.25 0 0 1-.121-.214v-.234a.45.45 0 0 1 .45-.45h.1a.45.45 0 0 1 .45.45V17a.75.75 0 0 0 1.5 0v-.05A1.95 1.95 0 0 0 14.05 15h-.1A1.95 1.95 0 0 0 12 16.95v.373a1.748 1.748 0 0 0 1.1 1.625l.566.226.713.428a.25.25 0 0 1 .121.214v.234a.45.45 0 0 1-.45.45h-.1a.45.45 0 0 1-.45-.45V20a.75.75 0 0 0-1.5 0v.05A1.95 1.95 0 0 0 13.95 22h.1ZM11 20.05A1.95 1.95 0 0 1 9.05 22h-.1A1.95 1.95 0 0 1 7 20.05V20a.747.747 0 0 1 .75-.75.751.751 0 0 1 .75.75v.05a.45.45 0 0 0 .45.45h.1a.45.45 0 0 0 .45-.45v-.234a.25.25 0 0 0-.121-.214l-.713-.428-.566-.226A1.75 1.75 0 0 1 7 17.323v-.373A1.95 1.95 0 0 1 8.95 15h.1A1.95 1.95 0 0 1 11 16.95V17a.747.747 0 0 1-.75.75.75.75 0 0 1-.75-.75v-.05a.45.45 0 0 0-.45-.45h-.1a.45.45 0 0 0-.45.45v.234a.25.25 0 0 0 .121.214l.713.428.566.226a1.75 1.75 0 0 1 1.1 1.625v.373ZM5.95 22l.05-.05V22h-.05Zm-1.124-.38A2.498 2.498 0 0 0 6 19.5a.75.75 0 1 0-1.5 0 1 1 0 1 1-2 0v-2a1 1 0 1 1 2 0 .75.75 0 1 0 1.5 0 2.5 2.5 0 0 0-5 0v2a2.5 2.5 0 0 0 3.826 2.12ZM13.5 8V2.5l6 6H14a.5.5 0 0 1-.5-.5Z" fill="#212121"/>
</svg>
